X:2
T:02 - Bruton Town
L:1/8
K:F
Q:1/4=155
R:
M:3/4
G2 | "Dm" A2 d2 c2- | "Am"c4 A2 | "C"G2 ED C2 | "G"D4 G2 | "Dm"A2 =B2 c2- |
"Em"c2 =B2 B2| "Am"A2 G=B A2- | A4 G2 | "Dm"A2 d2 c2- | "Am"c4 A2 |
"C"G2 ED C2 | "G"D4 E2 |"F"FG A2 G2 | "C"EC "G"D2 D2 | "Dm"D6- | D4  |]

